X:1
T:[ID 5-45]
T:[ID 5-45]
T:Bezeichnung standardisiert: Menuet [mit Trio] Menuet Con Trio
T:Urheber unbekannt Datum in der hier transkribierten schriftlichen Quelle: 1773
C:Urheber unbekannt
C:Datum in der hier transkribierten schriftlichen Quelle: 1773
L:1/8
M:3/4
K:G
V:1 treble 
V:1
 G2 g2 d2 | e2 c2 A2 | d2 B2 G2 | FA D4 | GF G2 A2 | BAGABc | d2 edcB | A6 :: D2 F2 AB | c2 A2 F2 | %10
 D2 G2 Bc | d2 B2 G2 | dedc B2 | BcBA G2 | AcBAGF | G6 :|[K:C][M:3/4]"^Trio" !fermata!cd e2 f2 | %17
 g4 e2 | gagfef | g4 e2 | gagf e2 | efed c2 | G2 f2 e2 | e2 d4 :: d3 cBc | d2 e2 f2 | e3 dcd | %27
 e2 f2 g2 | gagf e2 | efed c2 | GfedcB | c6 :| %32

